X: 42870
T: Wild Rover, The
R: waltz
M: 3/4
K: Gmajor
D2|"G"G2>A2 G2|E2 D2 B2|B2 A2 B2|"C"(c6|c4) Bc|"G"d2 B2 d2|"D"c2<A2 F2|
"D"D2 TB3 A|"G"G6|z2 z2 D2|G2 A3 G|E2 D2 B2|B2 A2<B2|"C"(c6|c4) Bc|
"G"d2 B2 d2|"D"c2 A2F2|D2 B3 A|"G"G2 z F G2|"D"A6|TA6|F2 (D4|D3)|"G"z2 B2 B2|
B2 A2 B2|"C"(c6|c3)B c2|"G"(d6|d3) B G2|"C"F2 (E4|E2) E2 E2|"G"D2 (B4|"D"B4) A2|"G"G6|z2 z2:|

